X:518
T:Priest in His Boots, The
T:Priest and His Boots, The
R:jig
S:Stefan Kayat
H:2nd part with some variations
H:See also #57, #534 in D, and #533 in G
Z:id:hn-jig-518
M:6/8
L:1/8
K:G
dBG c2A | BGB cBA | ~G3 BdB | cBc ABc |
dBG c2A | BGB cBA | ~G3 B/c/dB |1 cAF G2d :|2 cAF GFG ||
~A3 ~D3 | dBG AFD | ~G3 BdB | cBc AFG |
~A3 ~D3 | dBG AFD | ~G3 BdB | cAF GFG |
AFA AFA | dBG AFD | ~G3 B/c/dB | cBc AFG |
~A3 DFA | dBG AFD | ~G3 B/c/dB | cAF G2d ||

